src/lib/packages/icons/src/assets/line/arrow-right-square.svg

<svg width="24" height="24" viewBox="0 0 24 24" fill="none" xmlns="http://www.w3.org/2000/svg">
<path d="M17.625 2.25H6.375C3.715 2.25 2.25 3.715 2.25 6.375V17.625C2.25 20.285 3.715 21.75 6.375 21.75H17.625C20.285 21.75 21.75 20.285 21.75 17.625V6.375C21.75 3.715 20.285 2.25 17.625 2.25ZM20.25 17.625C20.25 19.465 19.465 20.25 17.625 20.25H6.375C4.535 20.25 3.75 19.465 3.75 17.625V6.375C3.75 4.535 4.535 3.75 6.375 3.75H17.625C19.465 3.75 20.25 4.535 20.25 6.375V17.625ZM16.6919 12.2871C16.6539 12.3791 16.599 12.462 16.53 12.531L13.53 15.531C13.384 15.677 13.192 15.751 13 15.751C12.808 15.751 12.616 15.678 12.47 15.531C12.177 15.238 12.177 14.763 12.47 14.47L14.1899 12.75H8C7.586 12.75 7.25 12.414 7.25 12C7.25 11.586 7.586 11.25 8 11.25H14.189L12.469 9.53003C12.176 9.23703 12.176 8.76199 12.469 8.46899C12.762 8.17599 13.237 8.17599 13.53 8.46899L16.53 11.469C16.599 11.538 16.6539 11.6209 16.6919 11.7129C16.7679 11.8969 16.7679 12.1031 16.6919 12.2871Z" fill="currentColor"/>
</svg>

<svg xmlns="http://www.w3.org/2000/svg" width="24" height="24" fill="none"><path fill="currentColor" d="M17.625 2.25H6.375c-2.66 0-4.125 1.465-4.125 4.125v11.25c0 2.66 1.465 4.125 4.125 4.125h11.25c2.66 0 4.125-1.465 4.125-4.125V6.375c0-2.66-1.465-4.125-4.125-4.125Zm2.625 15.375c0 1.84-.785 2.625-2.625 2.625H6.375c-1.84 0-2.625-.785-2.625-2.625V6.375c0-1.84.785-2.625 2.625-2.625h11.25c1.84 0 2.625.785 2.625 2.625v11.25Zm-3.558-5.338a.748.748 0 0 1-.162.244l-3 3a.748.748 0 0 1-1.06 0 .75.75 0 0 1 0-1.061l1.72-1.72H8a.75.75 0 0 1 0-1.5h6.189l-1.72-1.72a.75.75 0 0 1 1.061-1.061l3 3a.748.748 0 0 1 .162.818Z"/></svg>
